src/assets/images/group3.svg

<svg fill="none" height="16" viewBox="0 0 16 16" width="16" xmlns="http://www.w3.org/2000/svg" xmlns:xlink="http://www.w3.org/1999/xlink"><clipPath id="a"><path d="m0 0h16v15.8507h-16z"/></clipPath><g clip-path="url(#a)"><g fill="#5a57c6"><path d="m11.451 10.1434c.7594.0928 1.4642.1511 2.158.2786.2022.0364.5281.2713.5245.4079-.0164.5482.3187.4862.6574.479.2732-.0055.5463-.0146.8195.0018.3059.02.3806-.1148.3897-.4025.0219-.7776-.2713-1.384-.9033-1.83017-.6246-.4407-1.3293-.70476-2.0833-.66833-.8031.03824-1.5989.20214-2.453.31686-.1894-.24948-.4334-.56635-.69744-.91236.65194-.18028 1.27474-.28226 1.83204-.52993.437-.19486.8486-.52265 1.1691-.8814.3114-.34783.2695-.82677.0674-1.26565 1.2838-.09288 1.5734-.38243 1.5989-1.61348.0091-.43706.2313-.61735.6246-.58821.3952.02914.5063-.13658.479-.50079-.0255-.33144.0091-.66834-.0146-.99978-.0073-.10926-.0911-.27862-.1785-.30958-1.1145-.380606-2.4803.4061-2.7316 1.5552-.0437.20214-.0892.40428-.1311.59549-1.3112.07467-1.5042.35511-1.7155 2.44207-.4024.17665-.87226.27134-1.19095.5445-.67562.57729-1.19645.41885-1.75734-.13658-.16572-.16389-.21671-.24584-.13476-.48076.20942-.59549.42431-1.20191.52629-1.8229.29137-1.79741-.80674-3.124974-2.48213-3.086731-.28955.007284-.41156.087412-.40064.391531.01821.45527.02186.91054-.00182 1.36399-.01821.34054.1038.44616.44253.44434.66469-.00546.93967.23856.99613.91236.04188.50626.0091 1.01981.0091 1.58981-.2677-.08013-.41156-.1202-.55361-.16754-.85955-.2932-1.61894-.29138-2.0906.96699-1.14728 3.06123-2.37833 6.08785-3.576596 9.12725-.058274.1475-.107443.2987-.162076.4516.076485.0201.109265.0401.131118.0328 3.432734-1.1746 6.867294-2.3474 10.296354-3.5292.4917-.1694.7066-.5664.6975-1.0617-.0055-.326-.0892-.652-.1603-1.1145z"/><path d="m9.92666 2.61871c.48444-.46802.94694-.91418 1.34944-1.30389-.4353-.447986-.8814-.91054-1.2711-1.31482-.44802.435238-.91057.883223-1.36584 1.32392.4316.43524.87776.88323 1.2875 1.29479z"/><path d="m3.64389 2.81543c-.47348-.47894-.92693-.93604-1.30025-1.31482-.42249.41521-.8814.86501-1.26747 1.24198.42067.42249.87412.87958 1.30207 1.30935.41521-.4061.86684-.84862 1.26565-1.23651z"/><path d="m13.8475 14.4011c-.428-.4262-.8833-.8796-1.313-1.3058-.4335.4207-.896.8669-1.3294 1.2875.437.4535.8832.9179 1.3093 1.3604.448-.4516.9015-.9069 1.3331-1.3421z"/><path d="m14.2607 6.33013c.2914.33872.5537.64284.7576.8814.3387-.28955.6429-.55179.8577-.73572-.2804-.346-.5354-.65741-.7812-.96153-.3151.30776-.5937.58093-.8341.81585z"/><path d="m.814022 7.57574c.338718-.28955.644658-.55179.883228-.75757-.29138-.33872-.55361-.64284-.757573-.8814-.338721.29137-.642841.55361-.939677.80674.307762.31504.580924.59367.814022.83223z"/><path d="m11.451 10.1434c.0692.4625.153.7885.1603 1.1145.0109.4953-.2058.8923-.6975 1.0617-3.42906 1.1819-6.8618 2.3546-10.296354 3.5292-.021853.0073-.054633-.0127-.131118-.0328.054632-.1547.103802-.3041.162076-.4516 1.196446-3.0394 2.427496-6.066 3.578416-9.12359.47348-1.25836 1.23287-1.26019 2.0906-.96699.14023.04735.28591.08741.55361.16754 0-.56818.0346-1.08172-.0091-1.58981-.05646-.67379-.33144-.91964-.99613-.91236-.33873.00365-.46074-.1038-.44253-.44434.02368-.45345.02004-.91054.00182-1.36399-.01274-.302296.11109-.384245.40064-.391529 1.67539-.038243 2.77168 1.289319 2.48213 3.086729-.10016.62099-.31504 1.22559-.52629 1.8229-.08195.23492-.03096.31687.13476.48076.56089.55543 1.08172.71387 1.75734.13659.31869-.27317.78853-.36786 1.19103-.54451.2112-2.08695.4042-2.3674 1.7154-2.44206.0419-.19122.0874-.39336.1311-.5955.2495-1.1491 1.6172-1.935804 2.7317-1.5552.0874.02914.1693.1985.1784.30959.0237.33143-.0109.66833.0146.99977.0273.36603-.0838.52993-.479.50079-.3933-.02913-.6155.15115-.6246.58821-.0255 1.23105-.315 1.5206-1.5989 1.61348.2003.43888.244.91782-.0674 1.26565-.3223.35875-.732.68655-1.1691.8814-.5573.24767-1.1801.34965-1.83202.52993.26402.34601.50812.66288.69752.91237.854-.11655 1.6517-.27863 2.453-.31687.7539-.03642 1.4586.22763 2.0833.66833.6319.44617.9251 1.05261.9032 1.83021-.0073.2877-.0837.4225-.3897.4024-.2713-.0182-.5463-.0072-.8195-.0018-.3387.0055-.6738.0692-.6574-.4789.0037-.1366-.3223-.3715-.5245-.408-.6956-.1292-1.4004-.1893-2.1598-.2822zm-4.86224-2.79173c-.06555-.0346-.13111-.06738-.19667-.10198.07102-.34236.14204-.68655.22763-1.09811-.34965-.10198-.68654-.2331-1.03619-.29502-.36058-.06373-.57182.14387-.50626.50262.06556.35147.173.7084.32961 1.02891.57729 1.17824 1.44958 2.12156 2.44753 2.95381.67927.5663 1.40223 1.0617 2.27449 1.2857.6192.1602.8651-.0966.7175-.7212-.0182-.0728-.04-.1457-.0564-.2203-.0619-.3023-.2076-.4389-.5409-.346-.36236.1019-.73568.1693-1.10901.2258-.13111.02-.27316-.031-.41156-.0492.05828-.1129.09106-.2513.17665-.3369.34054-.34418.69565-.67197 1.06715-1.02708-.22582-.27499-.46802-.54633-.67926-.8377-.16754-.23128-.33326-.20578-.5354-.06374-.35875.25313-.71751.50808-1.08901.743-.09469.0601-.23674.04189-.35693.0601.02003-.12201.00546-.26406.06556-.3624.28045-.46073.58275-.91054.89415-1.3913-.34054-.25495-.65923-.49351-.97428-.73025-.26041.28955-.4844.53539-.7084.78124z"/><path d="m9.92653 2.61871c-.40974-.41156-.85591-.85955-1.28932-1.29479.45527-.442518.91782-.890503 1.36579-1.32392.3897.40428.8377.866834 1.2711 1.31482-.4024.38971-.865.83587-1.34757 1.30389z"/><path d="m3.64389 2.81543c-.39699.38789-.85044.83041-1.26565 1.23651-.42795-.42977-.8814-.88504-1.30207-1.30935.38425-.37697.84498-.82859 1.26747-1.24198.37332.37878.82677.83588 1.30025 1.31482z"/><path d="m13.8475 14.4011c-.4316.4352-.8851.8905-1.3331 1.3421-.4261-.4425-.8723-.9051-1.3093-1.3604.4334-.4206.8959-.8668 1.3294-1.2875.4297.4262.885.8796 1.313 1.3058z"/><path d="m14.2607 6.33013c.2404-.23492.519-.50809.8341-.81585.2458.3023.5008.61553.7812.96153-.2148.18393-.5208.44617-.8577.73572-.2039-.23856-.4662-.54268-.7576-.8814z"/><path d="m.814022 7.57574c-.233098-.23856-.50626-.51719-.814022-.83223.296836-.25496.600956-.51719.939677-.80674.203963.23674.466193.54268.757573.8814-.23857.20578-.54451.4662-.883228.75757z"/></g><path d="m6.58882 7.35174c.22399-.24584.44799-.49169.7084-.77942.31505.23674.63556.4753.97428.73025-.31141.48077-.61189.93058-.89415 1.39131-.0601.09834-.04553.24038-.06556.36239.12019-.01821.26223-.00182.35693-.06009.3715-.2331.73025-.48987 1.08901-.743.20213-.14205.36603-.16572.53539.06374.21307.29137.45345.56271.67926.83769-.3715.35511-.72661.68291-1.06715 1.02709-.08559.0856-.11837.224-.17664.3369.13658.0182.28044.0692.41156.0492.37332-.0583.74664-.1257 1.10905-.2258.3351-.0929.4808.0418.5408.346.0146.0746.0383.1456.0565.2203.1475.6246-.0983.8796-.7175.7212-.87048-.224-1.59527-.7194-2.27453-1.2857-.99795-.83226-1.87025-1.77557-2.44753-2.95381-.15661-.32051-.26406-.67744-.32962-1.02891-.06738-.35876.14569-.56454.50626-.50262.34965.06192.68655.19121 1.0362.29501-.08559.41157-.15662.75393-.22764 1.09811.06556.03278.13112.06738.19668.10016z" fill="#fff"/></g></svg>

<svg width="16" height="16" viewBox="0 0 16 16" fill="none" xmlns="http://www.w3.org/2000/svg">
<g clip-path="url(#clip0_100_161)">
<path d="M11.451 10.1434C12.2104 10.2362 12.9152 10.2945 13.609 10.422C13.8112 10.4584 14.1371 10.6933 14.1335 10.8299C14.1171 11.3781 14.4522 11.3161 14.7909 11.3089C15.0641 11.3034 15.3372 11.2943 15.6104 11.3107C15.9163 11.3307 15.991 11.1959 16.0001 10.9082C16.022 10.1306 15.7288 9.5242 15.0968 9.07803C14.4722 8.63733 13.7675 8.37327 13.0135 8.4097C12.2104 8.44794 11.4146 8.61184 10.5605 8.72656C10.3711 8.47708 10.1271 8.16021 9.86306 7.8142C10.515 7.63392 11.1378 7.53194 11.6951 7.28427C12.1321 7.08941 12.5437 6.76162 12.8642 6.40287C13.1756 6.05504 13.1337 5.5761 12.9316 5.13722C14.2154 5.04434 14.505 4.75479 14.5305 3.52374C14.5396 3.08668 14.7618 2.90639 15.1551 2.93553C15.5503 2.96467 15.6614 2.79895 15.6341 2.43474C15.6086 2.1033 15.6432 1.7664 15.6195 1.43496C15.6122 1.3257 15.5284 1.15634 15.441 1.12538C14.3265 0.744774 12.9607 1.53148 12.7094 2.68058C12.6657 2.88272 12.6202 3.08486 12.5783 3.27607C11.2671 3.35074 11.0741 3.63118 10.8628 5.71814C10.4604 5.89479 9.99054 5.98948 9.67185 6.26264C8.99623 6.83993 8.4754 6.68149 7.91451 6.12606C7.74879 5.96217 7.6978 5.88022 7.77975 5.6453C7.98917 5.04981 8.20406 4.44339 8.30604 3.8224C8.59741 2.02499 7.4993 0.697426 5.82391 0.735669C5.53436 0.742953 5.41235 0.823081 5.42327 1.1272C5.44148 1.58247 5.44513 2.03774 5.42145 2.49119C5.40324 2.83173 5.52525 2.93735 5.86398 2.93553C6.52867 2.93007 6.80365 3.17409 6.86011 3.84789C6.90199 4.35415 6.86921 4.8677 6.86921 5.4377C6.60151 5.35757 6.45765 5.3175 6.3156 5.27016C5.45605 4.97696 4.69666 4.97878 4.225 6.23715C3.07772 9.29838 1.84667 12.325 0.648404 15.3644C0.59013 15.5119 0.540961 15.6631 0.486328 15.816C0.562813 15.8361 0.595593 15.8561 0.617446 15.8488C4.05018 14.6742 7.48474 13.5014 10.9138 12.3196C11.4055 12.1502 11.6204 11.7532 11.6113 11.2579C11.6058 10.9319 11.5221 10.6059 11.451 10.1434Z" fill="#5A57C6"/>
<path d="M9.92666 2.61871C10.4111 2.15069 10.8736 1.70453 11.2761 1.31482C10.8408 0.866834 10.3947 0.40428 10.005 0C9.55698 0.435238 9.09443 0.883223 8.63916 1.32392C9.07076 1.75916 9.51692 2.20715 9.92666 2.61871Z" fill="#5A57C6"/>
<path d="M3.64389 2.81543C3.17041 2.33649 2.71696 1.87939 2.34364 1.50061C1.92115 1.91582 1.46224 2.36562 1.07617 2.74259C1.49684 3.16508 1.95029 3.62217 2.37824 4.05194C2.79345 3.64584 3.24508 3.20332 3.64389 2.81543Z" fill="#5A57C6"/>
<path d="M13.8475 14.4011C13.4195 13.9749 12.9642 13.5215 12.5345 13.0953C12.101 13.516 11.6385 13.9622 11.2051 14.3828C11.6421 14.8363 12.0883 15.3007 12.5144 15.7432C12.9624 15.2916 13.4159 14.8363 13.8475 14.4011Z" fill="#5A57C6"/>
<path d="M14.2607 6.33013C14.5521 6.66885 14.8144 6.97297 15.0183 7.21153C15.357 6.92198 15.6612 6.65974 15.876 6.47581C15.5956 6.12981 15.3406 5.8184 15.0948 5.51428C14.7797 5.82204 14.5011 6.09521 14.2607 6.33013Z" fill="#5A57C6"/>
<path d="M0.814022 7.57574C1.15274 7.28619 1.45868 7.02395 1.69725 6.81817C1.40587 6.47945 1.14364 6.17533 0.939677 5.93677C0.600956 6.22814 0.296836 6.49038 0 6.74351C0.307762 7.05855 0.580924 7.33718 0.814022 7.57574Z" fill="#5A57C6"/>
<path d="M11.451 10.1434C11.5202 10.6059 11.604 10.9319 11.6113 11.2579C11.6222 11.7532 11.4055 12.1502 10.9138 12.3196C7.48474 13.5015 4.052 14.6742 0.617446 15.8488C0.595593 15.8561 0.562813 15.8361 0.486328 15.816C0.54096 15.6613 0.59013 15.5119 0.648404 15.3644C1.84485 12.325 3.0759 9.2984 4.22682 6.24081C4.7003 4.98245 5.45969 4.98062 6.31742 5.27382C6.45765 5.32117 6.60333 5.36123 6.87103 5.44136C6.87103 4.87318 6.90563 4.35964 6.86193 3.85155C6.80547 3.17776 6.53049 2.93191 5.8658 2.93919C5.52707 2.94284 5.40506 2.83539 5.42327 2.49485C5.44695 2.0414 5.44331 1.58431 5.42509 1.13086C5.41235 0.828564 5.53618 0.746615 5.82573 0.739331C7.50112 0.701088 8.59741 2.02865 8.30786 3.82606C8.2077 4.44705 7.99282 5.05165 7.78157 5.64896C7.69962 5.88388 7.75061 5.96583 7.91633 6.12972C8.47722 6.68515 8.99805 6.84359 9.67367 6.26631C9.99236 5.99314 10.4622 5.89845 10.8647 5.7218C11.0759 3.63485 11.2689 3.3544 12.5801 3.27974C12.622 3.08852 12.6675 2.88638 12.7112 2.68424C12.9607 1.53514 14.3284 0.748436 15.4429 1.12904C15.5303 1.15818 15.6122 1.32754 15.6213 1.43863C15.645 1.77006 15.6104 2.10696 15.6359 2.4384C15.6632 2.80443 15.5521 2.96833 15.1569 2.93919C14.7636 2.91006 14.5414 3.09034 14.5323 3.5274C14.5068 4.75845 14.2173 5.048 12.9334 5.14088C13.1337 5.57976 13.1774 6.0587 12.866 6.40653C12.5437 6.76528 12.134 7.09308 11.6969 7.28793C11.1396 7.5356 10.5168 7.63758 9.86488 7.81786C10.1289 8.16387 10.373 8.48074 10.5624 8.73023C11.4164 8.61368 12.2141 8.4516 13.0154 8.41336C13.7693 8.37694 14.474 8.64099 15.0987 9.08169C15.7306 9.52786 16.0238 10.1343 16.0019 10.9119C15.9946 11.1996 15.9182 11.3344 15.6122 11.3143C15.3409 11.2961 15.0659 11.3071 14.7927 11.3125C14.454 11.318 14.1189 11.3817 14.1353 10.8336C14.139 10.697 13.813 10.4621 13.6108 10.4256C12.9152 10.2964 12.2104 10.2363 11.451 10.1434ZM6.58876 7.35167C6.52321 7.31707 6.45765 7.28429 6.39209 7.24969C6.46311 6.90733 6.53413 6.56314 6.61972 6.15158C6.27007 6.0496 5.93318 5.91848 5.58353 5.85656C5.22295 5.79283 5.01171 6.00043 5.07727 6.35918C5.14283 6.71065 5.25027 7.06758 5.40688 7.38809C5.98417 8.56633 6.85646 9.50965 7.85441 10.3419C8.53368 10.9082 9.25664 11.4036 10.1289 11.6276C10.7481 11.7878 10.994 11.531 10.8464 10.9064C10.8282 10.8336 10.8064 10.7607 10.79 10.6861C10.7281 10.3838 10.5824 10.2472 10.2491 10.3401C9.88674 10.442 9.51342 10.5094 9.14009 10.5659C9.00898 10.5859 8.86693 10.5349 8.72853 10.5167C8.78681 10.4038 8.81959 10.2654 8.90518 10.1798C9.24572 9.83562 9.60083 9.50783 9.97233 9.15272C9.74651 8.87773 9.50431 8.60639 9.29307 8.31502C9.12553 8.08374 8.95981 8.10924 8.75767 8.25128C8.39892 8.50441 8.04016 8.75936 7.66866 8.99428C7.57397 9.05438 7.43192 9.03617 7.31173 9.05438C7.33176 8.93237 7.31719 8.79032 7.37729 8.69198C7.65774 8.23125 7.96004 7.78144 8.27144 7.30068C7.9309 7.04573 7.61221 6.80717 7.29716 6.57043C7.03675 6.85998 6.81276 7.10582 6.58876 7.35167Z" fill="#5A57C6"/>
<path d="M9.92653 2.61871C9.51679 2.20715 9.07062 1.75916 8.63721 1.32392C9.09248 0.881402 9.55503 0.433417 10.003 0C10.3927 0.40428 10.8407 0.866834 11.2741 1.31482C10.8717 1.70453 10.4091 2.15069 9.92653 2.61871Z" fill="#5A57C6"/>
<path d="M3.64389 2.81543C3.2469 3.20332 2.79345 3.64584 2.37824 4.05194C1.95029 3.62217 1.49684 3.1669 1.07617 2.74259C1.46042 2.36562 1.92115 1.914 2.34364 1.50061C2.71696 1.87939 3.17041 2.33649 3.64389 2.81543Z" fill="#5A57C6"/>
<path d="M13.8475 14.4011C13.4159 14.8363 12.9624 15.2916 12.5144 15.7432C12.0883 15.3007 11.6421 14.8381 11.2051 14.3828C11.6385 13.9622 12.101 13.516 12.5345 13.0953C12.9642 13.5215 13.4195 13.9749 13.8475 14.4011Z" fill="#5A57C6"/>
<path d="M14.2607 6.33013C14.5011 6.09521 14.7797 5.82204 15.0948 5.51428C15.3406 5.81658 15.5956 6.12981 15.876 6.47581C15.6612 6.65974 15.3552 6.92198 15.0183 7.21153C14.8144 6.97297 14.5521 6.66885 14.2607 6.33013Z" fill="#5A57C6"/>
<path d="M0.814022 7.57574C0.580924 7.33718 0.307762 7.05855 0 6.74351C0.296836 6.48855 0.600956 6.22632 0.939677 5.93677C1.14364 6.17351 1.40587 6.47945 1.69725 6.81817C1.45868 7.02395 1.15274 7.28437 0.814022 7.57574Z" fill="#5A57C6"/>
<path d="M6.58882 7.35174C6.81281 7.1059 7.03681 6.86005 7.29722 6.57232C7.61227 6.80906 7.93278 7.04762 8.2715 7.30257C7.96009 7.78334 7.65961 8.23315 7.37735 8.69388C7.31725 8.79222 7.33182 8.93426 7.31179 9.05627C7.43198 9.03806 7.57402 9.05445 7.66872 8.99618C8.04022 8.76308 8.39897 8.50631 8.75773 8.25318C8.95986 8.11113 9.12376 8.08746 9.29312 8.31692C9.50619 8.60829 9.74657 8.87963 9.97238 9.15461C9.60088 9.50972 9.24577 9.83752 8.90523 10.1817C8.81964 10.2673 8.78686 10.4057 8.72859 10.5186C8.86517 10.5368 9.00903 10.5878 9.14015 10.5678C9.51347 10.5095 9.88679 10.4421 10.2492 10.342C10.5843 10.2491 10.73 10.3838 10.79 10.688C10.8046 10.7626 10.8283 10.8336 10.8465 10.9083C10.994 11.5329 10.7482 11.7879 10.129 11.6295C9.25852 11.4055 8.53373 10.9101 7.85447 10.3438C6.85652 9.51154 5.98422 8.56823 5.40694 7.38999C5.25033 7.06948 5.14288 6.71255 5.07732 6.36108C5.00994 6.00232 5.22301 5.79654 5.58358 5.85846C5.93323 5.92038 6.27013 6.04967 6.61978 6.15347C6.53419 6.56504 6.46316 6.9074 6.39214 7.25158C6.4577 7.28436 6.52326 7.31896 6.58882 7.35174Z" fill="white"/>
</g>
<defs>
<clipPath id="clip0_100_161">
<rect width="16" height="15.8507" fill="white"/>
</clipPath>
</defs>
</svg>
